clients/portal/components/icon/svgs/create_new_folder.svg

<svg xmlns="http://www.w3.org/2000/svg" height="24" viewBox="0 0 24 24" width="24"><path d="M0 0h24v24H0V0z" fill="currentColor"/><path d="M20 6h-8l-2-2H4c-1.11 0-1.99.89-1.99 2L2 18c0 1.11.89 2 2 2h16c1.11 0 2-.89 2-2V8c0-1.11-.89-2-2-2zm0 12H4V6h5.17l2 2H20v10zm-8-4h2v2h2v-2h2v-2h-2v-2h-2v2h-2z"/></svg>

<svg width="24" height="24" viewBox="0 0 24 24" fill="none" xmlns="http://www.w3.org/2000/svg">
<path d="M20 6H12L10 4H4C2.89 4 2.01 4.89 2.01 6L2 18C2 19.11 2.89 20 4 20H20C21.11 20 22 19.11 22 18V8C22 6.89 21.11 6 20 6ZM20 18H4V6H9.17L11.17 8H20V18ZM12 14H14V16H16V14H18V12H16V10H14V12H12V14Z" fill="#475569"/>
</svg>
